icons/mcp-24.svg

<svg width="24" height="24" viewBox="0 0 24 24" fill="none" xmlns="http://www.w3.org/2000/svg">
<rect width="24" height="24" fill="white"/>
<path d="M9.79509 1.69423C11.4687 0.02109 14.1822 0.0208892 15.8556 1.69423C16.8937 2.73229 17.2869 4.17073 17.0373 5.51259C18.3792 5.26272 19.8175 5.6563 20.8556 6.69423C22.5289 8.36774 22.5288 11.0812 20.8556 12.7548L14.0627 19.5477C13.9651 19.6453 13.9654 19.8036 14.0627 19.9013L16.6799 22.5194C16.9727 22.8123 16.9726 23.2871 16.6799 23.58C16.3869 23.8726 15.9121 23.8728 15.6193 23.58L13.0021 20.9618C12.319 20.2784 12.3188 19.1705 13.0021 18.4872L19.7951 11.6942C20.8825 10.6065 20.8826 8.8425 19.7951 7.75478C18.7074 6.66741 16.9434 6.66741 15.8556 7.75478L9.95622 13.6552C9.9379 13.6735 9.91827 13.6909 9.89861 13.7069C9.83962 13.755 9.77501 13.7927 9.7072 13.8202C9.43616 13.9299 9.1143 13.8748 8.8947 13.6552C8.60207 13.3624 8.6023 12.8875 8.8947 12.5946L14.7951 6.69423C15.8825 5.60638 15.8828 3.84245 14.7951 2.75478C13.7074 1.66722 11.9434 1.66743 10.8556 2.75478L2.93083 10.6796C2.63794 10.9725 2.16318 10.9725 1.87029 10.6796C1.57755 10.3867 1.57745 9.91188 1.87029 9.61904L9.79509 1.69423Z" fill="black"/>
<path d="M12.4201 4.06923C12.7129 3.77679 13.1879 3.77667 13.4806 4.06923C13.7733 4.36201 13.7731 4.83689 13.4806 5.12978L7.33025 11.2802C6.24269 12.3679 6.24269 14.1319 7.33025 15.2196C8.41801 16.3073 10.1819 16.3072 11.2697 15.2196L17.4201 9.06923C17.713 8.77678 18.1879 8.77666 18.4806 9.06923C18.7733 9.36201 18.7731 9.83689 18.4806 10.1298L12.3302 16.2802C10.6567 17.9535 7.94325 17.9536 6.2697 16.2802C4.59636 14.6066 4.59636 11.8932 6.2697 10.2196L12.4201 4.06923Z" fill="black"/>
</svg>

<svg xmlns="http://www.w3.org/2000/svg" width="24" height="24" viewBox="0 0 24 24"><path d="M0 0h24v24H0V0Z"/><path d="M9.795 1.694a4.287 4.287 0 0 1 6.061 0 4.28 4.28 0 0 1 1.181 3.819 4.282 4.282 0 0 1 3.819 1.181 4.287 4.287 0 0 1 0 6.061l-6.793 6.793a.249.249 0 0 0 0 .353l2.617 2.618a.75.75 0 1 1-1.061 1.061l-2.617-2.618a1.75 1.75 0 0 1 0-2.475l6.793-6.793a2.785 2.785 0 1 0-3.939-3.939l-5.9 5.9a.734.734 0 0 1-.249.165.749.749 0 0 1-.812-1.225l5.9-5.901a2.785 2.785 0 1 0-3.939-3.939L2.931 10.68A.75.75 0 1 1 1.87 9.619l7.925-7.925Z"/><path d="M12.42 4.069a.752.752 0 0 1 1.061 0 .752.752 0 0 1 0 1.061L7.33 11.28a2.788 2.788 0 0 0 0 3.94 2.788 2.788 0 0 0 3.94 0l6.15-6.151a.752.752 0 0 1 1.061 0 .752.752 0 0 1 0 1.061l-6.151 6.15a4.285 4.285 0 1 1-6.06-6.06l6.15-6.151Z"/></svg>
